X:1
T: Polska efter Anders Frisell
S: Utlärd av Jonny Soling
Z: Karin Arén
M: 3/4
L: 1/8
K: Dm
|: va(g/a/ =b)v(a gf | ed ^c)=B/c/ ud2 | v(A/=B/)A/G/ AA/u(B/ c)A | u(c/=B/)A/G/ (BA) u[A2A2] :|:
vAA/^c/ (e/c/)A/u(c/ d)v(e | f)a gf/g/ a2 | v(f/g/f/e/ ^c)(c/d/) e(e/g/) |vfa/f/ d4 |  
vAA/^c/ (e/c/)A/u(c/ d)v(e | f)a gf/g/ a2 | v(f/g/f/e/ ^c)(c/d/) e(e/g/) |vfa/f/ d4 :|

